X:362
T: "Braver Entschluss"
N: Z1042
O: Europa, Mitteleuropa, Deutschland; Elsass
R: Romanze, Ballade
M: 2/4
L: 1/16
K: G
d2 | G2D2G2A2 | B3cdc
Bd | g2d2c2B2 | A4z2
d2 | e2dde2f2 | g2fed2
c2 | B2B2dcBA | G4z2

